X: 13144
T: First Month Of Spring, The
R: reel
M: 4/4
K: Dmajor
dB B2 A2FA|A2FA defe|dB B2 ADFA|Beed egfe|
dBBA ADFB|A3B defg|afge fdef|dBAB e3f||
af f2 afbf|af f2 afef|af f2 a3f|eafe dBA2|
af f2 afbf|af f2 afea|fa a2 fb b2|bafe f3e||

